packages/icons/src/circle-question-fill.svg

<svg width="24" height="24" viewBox="0 0 24 24" fill="none" xmlns="http://www.w3.org/2000/svg">
<path d="M11.9415 17.825C11.6564 17.825 11.4081 17.719 11.1965 17.5069C10.9849 17.2949 10.8791 17.0433 10.8791 16.7522C10.8791 16.4611 10.9852 16.2128 11.1972 16.0073C11.4093 15.8017 11.6602 15.6989 11.9499 15.6989C12.2397 15.6989 12.488 15.8016 12.6949 16.0069C12.9018 16.2121 13.0052 16.4634 13.0052 16.7607C13.0052 17.0471 12.9009 17.296 12.6924 17.5076C12.4838 17.7192 12.2335 17.825 11.9415 17.825ZM12.0053 22.3533C13.442 22.3533 14.7879 22.0833 16.043 21.5434C17.298 21.0035 18.3958 20.2632 19.3365 19.3226C20.2771 18.382 21.0174 17.2841 21.5573 16.0292C22.0972 14.7742 22.3672 13.4276 22.3672 11.9895C22.3672 10.5513 22.0972 9.20414 21.5573 7.94785C21.0174 6.69157 20.2779 5.59703 19.3387 4.66423C18.3995 3.73143 17.3021 2.99296 16.0464 2.44883C14.7908 1.9047 13.4435 1.63263 12.0045 1.63263C10.5656 1.63263 9.21746 1.90433 7.96006 2.44773C6.70266 2.99113 5.60791 3.72861 4.67581 4.66016C3.74371 5.59171 3.0058 6.68714 2.46209 7.94645C1.91837 9.20577 1.64651 10.5547 1.64651 11.9934C1.64651 13.4314 1.91858 14.7779 2.46271 16.0328C3.00685 17.2876 3.74531 18.3833 4.67811 19.3197C5.61091 20.2561 6.70613 20.9958 7.96376 21.5388C9.22141 22.0818 10.5686 22.3533 12.0053 22.3533ZM11.9726 7.72613C11.5261 7.72613 11.1322 7.86583 10.791 8.14523C10.4498 8.42463 10.2791 8.77681 10.2791 9.20178C10.2791 9.60345 10.3978 9.95605 10.635 10.2596C10.8722 10.5632 11.1409 10.8389 11.4411 11.087C11.8244 11.4131 12.1601 11.7742 12.4482 12.1705C12.7362 12.5668 12.8802 13.0067 12.8802 13.4903C12.8802 13.6976 12.8003 13.8635 12.6405 13.9881C12.4808 14.1127 12.2943 14.175 12.0813 14.175C11.853 14.175 11.6615 14.0989 11.5067 13.9468C11.3519 13.7946 11.2416 13.6091 11.1759 13.3903C11.1164 13.0685 10.9904 12.7776 10.7977 12.5175C10.605 12.2574 10.3741 12.0223 10.1049 11.812C9.70149 11.4844 9.37116 11.0904 9.11391 10.6299C8.85666 10.1694 8.72804 9.68267 8.72804 9.16965C8.72804 8.31817 9.03583 7.60149 9.65141 7.01961C10.267 6.43772 10.9972 6.14678 11.8421 6.14678C12.4701 6.14678 13.0651 6.27884 13.6273 6.54295C14.1894 6.80709 14.6596 7.19025 15.0378 7.69243C15.1639 7.87793 15.2207 8.0805 15.2083 8.30015C15.1958 8.5198 15.1001 8.69766 14.9212 8.83373C14.7027 8.97648 14.475 9.0205 14.2382 8.9658C14.0014 8.91109 13.8056 8.78265 13.6509 8.58048C13.4572 8.31978 13.2132 8.11221 12.9187 7.95778C12.6243 7.80335 12.3089 7.72613 11.9726 7.72613Z" fill="black"/>
</svg>

<svg xmlns="http://www.w3.org/2000/svg" width="24" height="24" fill="none" viewBox="0 0 24 24">
  <path fill="#000" d="M11.941 17.825a1.02 1.02 0 0 1-.745-.318 1.032 1.032 0 0 1-.317-.755 1 1 0 0 1 .318-.745c.212-.205.463-.308.753-.308s.538.103.745.308c.207.205.31.456.31.754 0 .286-.104.535-.313.747a1.017 1.017 0 0 1-.75.317Zm.064 4.528c1.437 0 2.783-.27 4.038-.81a10.45 10.45 0 0 0 3.294-2.22 10.45 10.45 0 0 0 2.22-3.294c.54-1.255.81-2.601.81-4.04 0-1.438-.27-2.785-.81-4.041a10.32 10.32 0 0 0-2.218-3.284 10.609 10.609 0 0 0-3.293-2.215c-1.255-.544-2.602-.816-4.041-.816-1.44 0-2.788.271-4.045.815A10.471 10.471 0 0 0 4.676 4.66a10.452 10.452 0 0 0-2.214 3.286 10.099 10.099 0 0 0-.815 4.047c0 1.438.272 2.785.816 4.04a10.562 10.562 0 0 0 2.215 3.287 10.413 10.413 0 0 0 3.286 2.219c1.257.543 2.605.814 4.041.814Zm-.032-14.627c-.447 0-.84.14-1.182.42-.341.279-.512.63-.512 1.056 0 .401.119.754.356 1.058.237.303.506.579.806.827.383.326.72.687 1.007 1.084.288.396.432.836.432 1.32a.6.6 0 0 1-.24.497.883.883 0 0 1-.559.187.788.788 0 0 1-.574-.228 1.283 1.283 0 0 1-.331-.557 2.083 2.083 0 0 0-.378-.873 3.658 3.658 0 0 0-.693-.705 4.055 4.055 0 0 1-.991-1.182 2.95 2.95 0 0 1-.386-1.46c0-.852.308-1.569.923-2.15a3.081 3.081 0 0 1 2.191-.873c.628 0 1.223.132 1.785.396a3.726 3.726 0 0 1 1.41 1.15.958.958 0 0 1 .171.607.692.692 0 0 1-.287.534.854.854 0 0 1-.683.132 1.008 1.008 0 0 1-.587-.386 2.133 2.133 0 0 0-.732-.622 2.007 2.007 0 0 0-.946-.232Z"/>
</svg>
